X:166
T:Banks Of Lough Gowna, The
M:6/8
L:1/8
R:Jig
K:BMin
"Bmi" B3 BAF | "D" FEF DFA | "Bmi"BcB BAF|"D" d2e "A" fed|
"Bmi" B3 BAF | "D" FEF DFA|"G"def "A" geg|1 "Bmi" fdB "A"Bdc:|
2 "Bmi" fdB "A"~B2A ||
|: "D" def ~a3|afb "A"afe|"D" dFA def| "G" geg "A"fdB|
"Bmi" def "A" ~a3|"D" afb "A"afe| "G"def "A"geg|1 "Bmi"fdB "A"~B2A:|
2 "Bmi"fdB "A"Bdc||
